X:0219
T:Chester Castle.
R:hornpipe
M:C
L:1/8
Q:1/2=92
I: :: ::
Z:Jack Campin * www.campin.me.uk * 2009
K:D
FG|A2AB AFDF|Adcd  AFDF|GBGE FAFD    |[CE]DEF E2
AG|FDFA d2cd|edcB  A2c2|dfdB c/d/e cA| FdB^G  A2:|
cd|e2ea ecAc|ea^ga ecAc|dfdB cecA    | B2B>B  B2
Bc|dcdB AFDF|GFGA  Bcdc|BAGF EBAG    | F2D2   D2:|
<end>
<start>
